X:135
T:Polska från Tuna
R:Slängpolska
Z:Transkription av Jon Magnusson 20080219
O:Småland
S:känd genom [[Grupper/Sågskära]], [[Personer/Björnlert-Löfberg-Pekkari]]
M:3/4
L:1/8
K:Dm
df/2d/2 eg/2e/2 f/2e/2f/2g/2 | ab/4a/4g/4a3/4a/2e/2 d/2^c/2=B/2A/2 | df/2d/2 eg/2e/2 f/2e/2f/2g/2 | a/2g/2e/2^c/2 ^cd d2:|
da ag fe | fe/2f/2 g/2f/2e/2f/2 fe | d a2 g fe | fe/2f/2 g/2f/2e/2f/2 fe|
f>f g/2f/2e/2f/2 d2|d>d e/2d/2^c/2=B/2 A2|ab/2a/2 ga/2g/2 f/2e/2f/2g/2|a/2g/2e/2^c/2 ^cd d2:|
(:musicend:)

(:music:)
